Numix/64/mimetypes/image-x-exr.svg

<?xml version="1.0" encoding="UTF-8" standalone="no"?>
<svg
   xmlns:dc="http://purl.org/dc/elements/1.1/"
   xmlns:cc="http://creativecommons.org/ns#"
   xmlns:rdf="http://www.w3.org/1999/02/22-rdf-syntax-ns#"
   xmlns:svg="http://www.w3.org/2000/svg"
   xmlns="http://www.w3.org/2000/svg"
   xmlns:sodipodi="http://sodipodi.sourceforge.net/DTD/sodipodi-0.dtd"
   xmlns:inkscape="http://www.inkscape.org/namespaces/inkscape"
   width="64px"
   height="64px"
   viewBox="0 0 64 64"
   version="1.1"
   id="svg2"
   inkscape:version="0.91 r13725"
   sodipodi:docname="application-x-exr_64.svg">
  <metadata
     id="metadata25">
    <rdf:RDF>
      <cc:Work
         rdf:about="">
        <dc:format>image/svg+xml</dc:format>
        <dc:type
           rdf:resource="http://purl.org/dc/dcmitype/StillImage" />
      </cc:Work>
    </rdf:RDF>
  </metadata>
  <defs
     id="defs23" />
  <sodipodi:namedview
     pagecolor="#ffffff"
     bordercolor="#666666"
     borderopacity="1"
     objecttolerance="10"
     gridtolerance="10"
     guidetolerance="10"
     inkscape:pageopacity="0"
     inkscape:pageshadow="2"
     inkscape:window-width="1920"
     inkscape:window-height="1013"
     id="namedview21"
     showgrid="false"
     inkscape:zoom="1"
     inkscape:cx="26.675376"
     inkscape:cy="11.596267"
     inkscape:window-x="0"
     inkscape:window-y="27"
     inkscape:window-maximized="1"
     inkscape:current-layer="svg2">
    <inkscape:grid
       type="xygrid"
       id="grid4141" />
  </sodipodi:namedview>
  <path
     inkscape:connector-curvature="0"
     id="path5"
     d="M 10.671875,0 C 9.296875,0 8,1.355469 8,2.789062 L 8,61.210938 C 8,62.566406 9.375,64 10.671875,64 l 42.65625,0 C 54.625,64 56,62.566406 56,61.210938 L 56,18 38,0 Z m 0,0"
     style="fill:#35a14c;fill-opacity:1;fill-rule:nonzero;stroke:none" />
  <path
     inkscape:connector-curvature="0"
     id="path7"
     d="m 42,18 14,14 0,-14 z m 0,0"
     style="fill:#000000;fill-opacity:0.19607801;fill-rule:nonzero;stroke:none" />
  <path
     inkscape:connector-curvature="0"
     id="path9"
     d="M 38,0 55.984375,18 40.757812,18 C 39.410156,18 38,16.574219 38,15.226562 Z m 0,0"
     style="fill:#ffffff;fill-opacity:0.39215698;fill-rule:nonzero;stroke:none" />
  <path
     sodipodi:nodetypes="ccccccccccccccccc"
     inkscape:connector-curvature="0"
     id="path11"
     d="M 23.289062,22 C 22.585938,22.066406 21.984375,22.8125 22,23.605469 l 0,16.828125 C 22.0078,41.261719 22.667969,42.007812 23.40625,42 l 17.222656,0 C 41.355469,41.984375 41.992188,41.253906 42,40.433594 L 42,23.605469 C 42.015625,22.769531 41.371094,22.007812 40.628906,22 Z M 24,24 40,24 40,35.402344 35.296875,30.085938 32.316406,32.859375 28.386719,27.9375 24,33.597656 Z"
     style="fill:#ffffff;fill-opacity:1;fill-rule:nonzero;stroke:none" />
  <path
     inkscape:connector-curvature="0"
     id="path13"
     d="M 8,48 8,61.335938 C 8,62.632812 9.375,64 10.664062,64 l 42.671876,0 C 54.625,64 56,62.632812 56,61.335938 L 56,48 Z m 0,0"
     style="fill:#000000;fill-opacity:0.19607801;fill-rule:nonzero;stroke:none" />
  <g
     id="g4204"
     transform="translate(0.9999995,0)">
    <path
       d="m 18.000001,62 0,-11 6.612091,0 0,1.812601 -4.443326,0 0,2.470113 3.861462,0 0,1.812601 -3.861462,0 0,3.092084 4.831235,0 0,1.812601 -7,0 z"
       style="font-style:normal;font-variant:normal;font-weight:bold;font-stretch:normal;font-size:medium;line-height:125%;font-family:'Ubuntu Mono';-inkscape-font-specification:'Ubuntu Mono, Bold';text-align:start;letter-spacing:0px;word-spacing:0px;writing-mode:lr-tb;text-anchor:start;fill:#ffffff;fill-opacity:1;stroke:none;stroke-width:1px;stroke-linecap:butt;stroke-linejoin:miter;stroke-opacity:1"
       id="path4195"
       inkscape:connector-curvature="0" />
    <path
       d="M 32.495817,62 Q 32.138075,61.0937 31.610878,59.991922 31.10251,58.890145 30.537657,57.788368 29.991632,58.836834 29.445607,59.974152 28.899581,61.0937 28.504185,62 L 26,62 q 0.188285,-0.479806 0.546026,-1.155089 0.376569,-0.675283 0.809622,-1.457189 0.451884,-0.781906 0.941423,-1.599354 0.48954,-0.835218 0.941423,-1.599353 L 26.188285,51 28.692469,51 30.537657,54.518578 32.476988,51 l 2.334727,0 -2.974894,5.135703 q 0.508368,0.764136 0.997907,1.599354 0.48954,0.835218 0.903766,1.634895 0.433054,0.781906 0.753138,1.474959 Q 34.811715,61.520194 35,62 l -2.504183,0 z"
       style="font-style:normal;font-variant:normal;font-weight:bold;font-stretch:normal;font-size:medium;line-height:125%;font-family:'Ubuntu Mono';-inkscape-font-specification:'Ubuntu Mono, Bold';text-align:start;letter-spacing:0px;word-spacing:0px;writing-mode:lr-tb;text-anchor:start;fill:#ffffff;fill-opacity:1;stroke:none;stroke-width:1px;stroke-linecap:butt;stroke-linejoin:miter;stroke-opacity:1"
       id="path4197"
       inkscape:connector-curvature="0" />
    <path
       d="m 38.942528,51 q 0.974713,0 1.765518,0.210862 0.790804,0.210863 1.360919,0.65016 0.570116,0.439297 0.864368,1.124601 0.312643,0.667731 0.312643,1.581469 0,0.948883 -0.404597,1.722046 -0.404598,0.773162 -1.342529,1.177316 0.312644,0.456868 0.662069,1.019169 0.349425,0.544728 0.68046,1.159744 0.331035,0.597444 0.625287,1.21246 Q 43.779311,61.455271 44,62 l -2.372414,0 Q 41.204598,60.945687 40.634482,59.979233 40.082758,58.995208 39.439081,57.99361 l -1.177014,0 0,4.00639 L 36,62 36,51.281151 q 0.331035,-0.07029 0.717241,-0.123004 0.404598,-0.07029 0.809196,-0.08786 0.404598,-0.03514 0.772414,-0.05271 0.367815,-0.01757 0.643677,-0.01757 z m 2.004599,3.549521 q 0,-0.861023 -0.551725,-1.265176 -0.551724,-0.404153 -1.452874,-0.404153 -0.128735,0 -0.312643,0.01757 -0.183909,0 -0.367818,0.03514 l 0,3.26837 0.496552,0 q 1.158622,0 1.673565,-0.421726 0.514943,-0.439296 0.514943,-1.230031 z"
       style="font-style:normal;font-variant:normal;font-weight:bold;font-stretch:normal;font-size:medium;line-height:125%;font-family:'Ubuntu Mono';-inkscape-font-specification:'Ubuntu Mono, Bold';text-align:start;letter-spacing:0px;word-spacing:0px;writing-mode:lr-tb;text-anchor:start;fill:#ffffff;fill-opacity:1;stroke:none;stroke-width:1px;stroke-linecap:butt;stroke-linejoin:miter;stroke-opacity:1"
       id="path4199"
       inkscape:connector-curvature="0" />
  </g>
</svg>

<svg xmlns="http://www.w3.org/2000/svg" viewBox="0 0 64 64">
 <path d="m 10.672 0 c -1.375 0 -2.672 1.355 -2.672 2.789 l 0 58.42 c 0 1.355 1.375 2.789 2.672 2.789 l 42.656 0 c 1.297 0 2.672 -1.434 2.672 -2.789 l 0 -43.21 -18 -18 m -27.328 0" style="fill:#35a14c;fill-opacity:1;stroke:none;fill-rule:nonzero"/>
 <path d="m 42 18 14 14 0 -14 z m 0 0" style="fill:#000;fill-opacity:0.196;stroke:none;fill-rule:nonzero"/>
 <path d="m 38 0 17.984 18 -15.227 0 c -1.348 0 -2.758 -1.426 -2.758 -2.773 m 0 -15.227" style="fill:#fff;fill-opacity:0.392;stroke:none;fill-rule:nonzero"/>
 <path d="m 23.289 22 c -0.703 0.066 -1.305 0.813 -1.289 1.605 l 0 16.828 c 0.008 0.828 0.668 1.574 1.406 1.566 l 17.223 0 c 0.727 -0.016 1.363 -0.746 1.371 -1.566 l 0 -16.828 c 0.016 -0.836 -0.629 -1.598 -1.371 -1.605 m -16.629 2 16 0 0 11.402 -4.703 -5.316 -2.98 2.773 -3.93 -4.922 -4.387 5.66" style="fill:#fff;fill-opacity:1;stroke:none;fill-rule:nonzero"/>
 <path d="m 8 48 0 13.336 c 0 1.297 1.375 2.664 2.664 2.664 l 42.672 0 c 1.289 0 2.664 -1.367 2.664 -2.664 l 0 -13.336 m -48 0" style="fill:#000;fill-opacity:0.196;stroke:none;fill-rule:nonzero"/>
 <g transform="translate(0.9999995,0)">
  <path d="m 18 62 0 -11 6.612 0 0 1.813 -4.443 0 0 2.47 3.861 0 0 1.813 -3.861 0 0 3.092 4.831 0 0 1.813 -7 0 z" style="fill:#fff;fill-opacity:1;stroke:none"/>
  <path d="m 32.496 62 q -0.358 -0.906 -0.885 -2.01 -0.508 -1.102 -1.073 -2.204 -0.546 1.048 -1.092 2.186 -0.546 1.12 -0.941 2.026 l -2.504 0 q 0.188 -0.48 0.546 -1.155 0.377 -0.675 0.81 -1.457 0.452 -0.782 0.941 -1.599 0.49 -0.835 0.941 -1.599 l -3.05 -5.189 2.504 0 1.845 3.519 1.939 -3.519 l 2.335 0 -2.975 5.136 q 0.508 0.764 0.998 1.599 0.49 0.835 0.904 1.635 0.433 0.782 0.753 1.475 q 0.32 0.675 0.508 1.155 l -2.504 0 z" style="fill:#fff;fill-opacity:1;stroke:none"/>
  <path d="m 38.943 51 q 0.975 0 1.766 0.211 0.791 0.211 1.361 0.65 0.57 0.439 0.864 1.125 0.313 0.668 0.313 1.581 0 0.949 -0.405 1.722 -0.405 0.773 -1.343 1.177 0.313 0.457 0.662 1.019 0.349 0.545 0.68 1.16 0.331 0.597 0.625 1.212 q 0.313 0.597 0.533 1.142 l -2.372 0 q -0.423 -1.054 -0.993 -2.02 -0.552 -0.984 -1.195 -1.986 l -1.177 0 0 4.01 l -2.262 0 0 -10.719 q 0.331 -0.07 0.717 -0.123 0.405 -0.07 0.809 -0.088 0.405 -0.035 0.772 -0.053 0.368 -0.018 0.644 -0.018 z m 2 3.55 q 0 -0.861 -0.552 -1.265 -0.552 -0.404 -1.453 -0.404 -0.129 0 -0.313 0.018 -0.184 0 -0.368 0.035 l 0 3.268 0.497 0 q 1.159 0 1.674 -0.422 0.515 -0.439 0.515 -1.23 z" style="fill:#fff;fill-opacity:1;stroke:none"/>
 </g>
</svg>
